X: 1
T: The Swift
C: Nicholas Williams
R: jig
Z: 2015 John Chambers <jc:trillian.mit.edu>
M: 6/8
L: 1/8
K: Bm
|:\
"Bm"BAB ~f3 | gfe fed | BAB f2f |\
"Em7"ede "F#m7"f3 | "Bm"BAB ~f3 | gfe fed |
[1 "G"cgf "F#m"Bfe | "Em7"Aed "A"Gdc :|\
[2 "G"cgf B2B | "A"cBA "Bm"B3 \
|:\
"Bm"~B3 fga | gfe "A"A3 | cBc cde |
efg "Bm"fdB | "A"A2A cde | edc "G"G3 |\
[1 dcB "F#m"~F3 | Fcf fcF :|\
[2 dcB "F#m"~F3 | "A"cBA "Bm"B3 |]

%%sep 1 1 500

